X:1
T:Komm, Heiliger Geist, Herre Gott
T:Komm, Heiliger Geist, Herre Gott
T:15th Century 
T:Public Domain Courtesy of the Cyber Hymnal™
C:15th Century
Z:Public Domain
Z:Courtesy of the Cyber Hymnal™
%%score ( 1 2 ) ( 3 4 )
L:1/8
Q:1/4=115
M:none
K:F
V:1 treble 
V:2 treble 
V:3 bass 
V:4 bass 
V:1
 [Fc]4 ([Fd]2 [Ec]2) A2 c2 [EG]4 [FA]2 [F=B]2 [Ec]4 | %1
 z2 [Fc]2 [Fd]2 [Fc]2 [EG]2 [DB]2 [FA]2 [EG]2 F4 | %2
 [DF]2 [EG]2 [DB]2 (AB) [Cc]2 [CG]2 ([A,F][CE]) C4 | %3
 z2 C2 [DF]2 [EG]2 (A c2) [FB] [FA]2 [DG]2 [EA]4 | %4
 [FA]4 [Fc]2 [Fd]2 [Ec]2 [EG]2 [FA]2 [F=B]2 [Ec]4 | %5
 z2 [Fc]2 [Fd]2 [Fc]2 [EG]2 [DB]2 [FA]2 [EG]2 F4 | %6
 z2 [CF]2 [CG]2 [DB]2 (AB) [Cc]2 [CG]2 ([A,F][CE]) C4 | z2 C2 [DF]2 [EG]2 ([FA] [Cc]2) [DB] [CA]2 | %8
 [CG]2 [A,D]2 [CE]2 [CF]4 | z2 [CG]2 [CA]2 [A,F]2 [B,D]2 [DG]2 [FA]2 [EG]2 [CF]4 |] %10
V:2
 x8 F4 x12 | x16 F4 | x6 D2 x5 C4 x | x2 C2 x2 F3 x11 | x20 | x16 F4 | x8 D2 x5 C4 x | x14 | x10 | %9
 x20 |] %10
V:3
 [F,A,]4 ([B,,B,]2 [C,G,]2) [D,F,]2 [A,,C]2 [C,C]4 [F,C]2 [D,F,]2 [C,G,]4 | %1
 z2 [F,A,]2 [B,,B,]2 [A,,C]2 [C,C]2 [G,,B,]2 [A,,C]2 [C,C]2 [F,,A,]4 | %2
 [D,A,]2 [C,C]2 [G,,B,]2 [D,F,]2 [A,,F,]2 [C,E,]2 ([D,F,][C,G,]) [C,E,]4 | %3
 z2 [C,E,]2 [B,,F,]2 [G,,B,]2 C3 [B,,D] [F,C]2 [B,,D]2 [A,,^C]4 | %4
 [D,D]4 [A,,C]2 [B,,B,]2 [C,G,]2 [C,C]2 [F,C]2 [D,F,]2 [C,G,]4 | %5
 z2 [F,A,]2 [B,,B,]2 [A,,C]2 [C,C]2 [G,,B,]2 [A,,C]2 [C,C]2 [F,,A,]4 | %6
 z2 [F,A,]2 [C,E,]2 [G,,G,]2 [D,F,]2 [A,,F,]2 [C,E,]2 ([D,F,][C,G,]) [C,E,]4 | %7
 z2 [C,E,]2 [B,,F,]2 [G,,B,]2 ([F,,C] [A,,F,]2) [B,,F,] [F,,F,]2 | %8
 [C,E,]2 [D,F,]2 [C,G,]2 [F,,A,]4 | %9
 z2 [C,E,]2 [A,,E,]2 [D,F,]2 [B,,F,]2 [G,,B,]2 [F,,C]2 [C,C]2 [F,,A,]4 |] %10
V:4
 x24 | x20 | x18 | x8 (F,, A,,2) x9 | x20 | x20 | x20 | x14 | x10 | x20 |] %10

